X:1
T:Eifionydd, 87.87 D
T:John Ambrose Lloyd, Sr. (1815-1874)
T:Eifionydd, 87.87 D
T:Public Domain
C:John Ambrose Lloyd, Sr. (1815-1874)
Z:Public Domain
%%score ( 1 2 ) ( 3 4 )
L:1/8
M:4/4
K:C
V:1 treble 
V:2 treble 
V:3 bass 
V:4 bass 
V:1
 [EA]2 (AB) [Ec]2 (BA) | [E^G]2 (E^D) [EB]2 [B,E]2 | [EA]2 (^GA) [FB]2 ([EA][FB]) | c2 z D [CA]4 | %4
 [CA]2 ([CA][DB]) [Ec]2 (BA) | [E^G]2 (E^D) [EB]2 [B,E]2 | (CE)([D^G][CA]) DF([EA][DB]) | %7
 CE-[EB-][DB] [CA]4 | [Ec]2 (cd) [Ee]2 [Ec]2 | [EB]2 [Ec]2 [Fd]2 (ED) | (CD)(AB) [Ec]2 [Ee]2 | %11
 [Fd]2 [Ec]2 [EB]4 | [Ee]2 (ed) [Ec]2 [^GB]2 | (A-[EA])([E^G]A) [GB]2 E2 | %14
 [EA]2 ([D^G][EA]) [FB]2 ([EA][FB]) | c2 z D [CA]4 |] %16
V:2
 x2 E2 x F2 x | x2 A2 x4 | x2 E2 x4 | E3 B2 x3 | x6 F2 | x2 A2 x4 | A2 x B2 x3 | c2 x6 | x2 E2 x4 | %9
 x6 B2 | A2 E2 x4 | x8 | x2 E2 x4 | x6 E2 | x8 | E3 B2 x3 |] %16
V:3
 [A,C]2 (CD) [A,E]2 (DC) | [E,B,]2 [F,A,]2 [E,^G,]2 (E,D,) | %2
 [C,A,]2 ([B,,B,][A,,C]) [D,B,]2 ([C,E,][D,A,]) | [E,A,]2 [E,^G,]2 [A,,A,]4 | %4
 [A,,A,]2 [A,,A,]2 A,-[A,E]DC | [E,B,]2 [F,A,]2 [E,^G,]2 (E,D,) | %6
 [C,A,]2 ([B,,B,][A,,C]) [D,B,]2 [C,E,][D,F,] | E,-[E,A,-][E,-A,][E,^G,] [A,,A,]4 | %8
 A,2 [A,C]2 [^G,B,]2 A,2 | [E,^G,]2 [A,,A,]2 [D,A,]2 [E,G,]2 | (A,B,)(CD) [A,E]2 [C,A,]2 | %11
 [D,A,]2 [A,,A,]2 [E,^G,]4 | [C,A,]2 [E,^G,]2 A,2 E,D, | (CE)([B,,D][A,,C]) [E,B,]2 (E,D,) | %14
 [C,A,]2 ([B,,B,][A,,C]) [D,B,]2 ([C,E,][D,A,]) | [E,A,]2 [E,^G,]2 [A,,A,]4 |] %16
V:4
 x2 A,2 x D,2 x | x6 ^G,2 | x8 | x8 | x6 D,2 | x6 ^G,2 | x8 | x8 | A,2 x2 A,2 x2 | x8 | %10
 A,,2 A,,2 x4 | x8 | x4 A,2 B,2 | C,2 x3 ^G,2 x | x8 | x8 |] %16

